X:1
T:Lady Blaney
T:Lady Blaney
T:Carolan
C:Carolan
L:1/8
M:2/4
K:C
V:1 treble 
V:1
"^Moderately Quick and Lively" .e.g (g/a/)(g/f/) | (e/f/)(e/d/) cG/ z/ | %2
 A,/ z/ A,/ z/ .F,/ z/ .F,/ z/ | .E,/ z/ .F,/ z/ G,/z/(e/d/) | .c.g (e/f/)(g/e/) | (a/g/f/e)d z | %6
 (f/e/d/c/) (.B.c) | .d.e A z | .G(A/G/) .F(G/F/) | .E(F/E/) .D.C |{^c} .d(e/d/){B} .c(d/c/) | %11
{^A} .B(c/B/) =A.G | (.G .e.f.e) | d2 z G | (A/G/)(F/E/){G} (F/E/D/C/) | (.[EGc]2 .[EGc]) z || %16
 .G(G/E/) .C.G, | .C.E.G.E | (A/G/)(A/F/) .D.A, | .D.F.A.F |{E} (E/G/)(E/G/) G2 | %21
{E} (F/A/)(F/A/) A2 |{A} (B/d/)(B/d/) d2 | (c/d/e/f/) (g>f) | .e.g (g/a/)(g/e/) | %25
 .f.c' (c'/b/)(c'/d'/) | (.c'.b .a)A | (.G.F)([Ee-].e) | (a/g/f/e/).d.d | (g/f/e/d/)(.c.c) | %30
 (d/e/d/c/) (B/c/B/A/) | .G.G .G(A/B/) | (c/G/E/G/) (c/G/E/G/) | [EGc]2 z B/c/ | %34
 (d/F/A/F/) (d/A/F/A/) | [FGd]2 z (G/F/) | (EG c)(c/B/) | (Ac f).e | (d/e/d/c/) (c/B/A/B/) | %39
 [Ec]2 !fermata![Ec] z || %40

